packages/icons/svg/Payment_Cards_Monochrome_CB_24px.svg

<svg xmlns="http://www.w3.org/2000/svg" viewBox="0 0 24 24"><path d="M9.61 11.82h2.62a1.9 1.9 0 00-.56-1.39 3.3 3.3 0 00-2.05-.56 3.34 3.34 0 00-2.12.6A2 2 0 007 12a2.19 2.19 0 00.62 1.62 3.28 3.28 0 002 .51 3.22 3.22 0 002-.51 2.07 2.07 0 00.61-1.62H9.61zM12.4 12v2H16a1 1 0 001-1 1 1 0 00-1-1zM16.93 10.88A.93.93 0 0016 10h-3.6v1.87h3.67a.94.94 0 00.86-.99z"/><path d="M21 19H3a1 1 0 01-1-1V6a1 1 0 011-1h18a1 1 0 011 1v12a1 1 0 01-1 1zm0-1zM3 6v12h18V6z"/></svg>

<svg xmlns="http://www.w3.org/2000/svg" viewBox="0 0 24 24"><defs></defs><g id="Icon"><path  d="M9.61,11.82h2.62a1.9,1.9,0,0,0-.56-1.39,3.3,3.3,0,0,0-2.05-.56,3.34,3.34,0,0,0-2.12.6A2,2,0,0,0,7,12a2.19,2.19,0,0,0,.62,1.62,3.28,3.28,0,0,0,2,.51,3.22,3.22,0,0,0,2-.51A2.07,2.07,0,0,0,12.23,12H9.61Z"/><path  d="M12.4,12v2H16a1,1,0,0,0,1-1,1,1,0,0,0-1-1Z"/><path  d="M16.93,10.88A.93.93,0,0,0,16,10H12.4v1.87h3.67A.94.94,0,0,0,16.93,10.88Z"/><path  d="M21,19H3a1,1,0,0,1-1-1V6A1,1,0,0,1,3,5H21a1,1,0,0,1,1,1V18A1,1,0,0,1,21,19Zm0-1v0ZM3,6V18H21V6Z"/></g></svg>
